X: 2295
T: The BRAES OF DUMBLANE
R: Reel.
%R: reel
B: James Kerr "Merry Melodies" v.2 p.32 #295
Z: 2016 John Chambers <jc:trillian.mit.edu>
M: C
L: 1/8
K: G
(ge) |\
d2(Bd) efge | dBGB (AG)E2 |\
d2(Bd) efgb | afdf g2 :|\
ud2 |\
g2{a}gf (gb)ag | fdad bdad |
g2{a}gf (gb)ag | fdef g2d2 |\
g2{a}gf (gb)ag | fdad bdad |\
edeg fdfb | afdf g2 |]

%%sep 1 1 500
%%sep 1 1 500

